img/get-in-touch/stars.svg

<svg width="119" height="19" viewBox="0 0 119 19" fill="none" xmlns="http://www.w3.org/2000/svg">
<g clip-path="url(#clip0_58_103)">
<path fill-rule="evenodd" clip-rule="evenodd" d="M9.8125 14.0551L4.04485 17.8345L5.85693 11.1812L0.480255 6.86377L7.36782 6.53118L9.8125 0.0834961L12.2572 6.53118L19.1447 6.86377L13.7681 11.1812L15.5801 17.8345L9.8125 14.0551Z" fill="#FFC54F"/>
</g>
<g clip-path="url(#clip1_58_103)">
<path fill-rule="evenodd" clip-rule="evenodd" d="M34.4375 14.0551L28.6699 17.8345L30.4819 11.1812L25.1053 6.86377L31.9928 6.53118L34.4375 0.0834961L36.8822 6.53118L43.7697 6.86377L38.3931 11.1812L40.2051 17.8345L34.4375 14.0551Z" fill="#FFC54F"/>
</g>
<g clip-path="url(#clip2_58_103)">
<path fill-rule="evenodd" clip-rule="evenodd" d="M59.0625 14.0551L53.2949 17.8345L55.1069 11.1812L49.7303 6.86377L56.6178 6.53118L59.0625 0.0834961L61.5072 6.53118L68.3947 6.86377L63.0181 11.1812L64.8301 17.8345L59.0625 14.0551Z" fill="#FFC54F"/>
</g>
<g clip-path="url(#clip3_58_103)">
<path fill-rule="evenodd" clip-rule="evenodd" d="M83.6875 14.0551L77.9199 17.8345L79.7319 11.1812L74.3553 6.86377L81.2428 6.53118L83.6875 0.0834961L86.1322 6.53118L93.0197 6.86377L87.6431 11.1812L89.4551 17.8345L83.6875 14.0551Z" fill="#FFC54F"/>
</g>
<g clip-path="url(#clip4_58_103)">
<path fill-rule="evenodd" clip-rule="evenodd" d="M108.312 14.0551L102.545 17.8345L104.357 11.1812L98.9803 6.86377L105.868 6.53118L108.312 0.0834961L110.757 6.53118L117.645 6.86377L112.268 11.1812L114.08 17.8345L108.312 14.0551Z" fill="#FFC54F"/>
</g>
<defs>
<clipPath id="clip0_58_103">
<rect width="19.625" height="17.9896" fill="white" transform="translate(0 0.0834961)"/>
</clipPath>
<clipPath id="clip1_58_103">
<rect width="19.625" height="17.9896" fill="white" transform="translate(24.625 0.0834961)"/>
</clipPath>
<clipPath id="clip2_58_103">
<rect width="19.625" height="17.9896" fill="white" transform="translate(49.25 0.0834961)"/>
</clipPath>
<clipPath id="clip3_58_103">
<rect width="19.625" height="17.9896" fill="white" transform="translate(73.875 0.0834961)"/>
</clipPath>
<clipPath id="clip4_58_103">
<rect width="19.625" height="17.9896" fill="white" transform="translate(98.5 0.0834961)"/>
</clipPath>
</defs>
</svg>

<svg xmlns="http://www.w3.org/2000/svg" width="119" height="19" fill="none"><g clip-path="url(#a)"><path fill="#FFC54F" fill-rule="evenodd" d="m9.813 14.055-5.768 3.78 1.812-6.654L.48 6.864l6.888-.333L9.812.083l2.445 6.448 6.888.333-5.377 4.317 1.812 6.653-5.768-3.779Z" clip-rule="evenodd"/></g><g clip-path="url(#b)"><path fill="#FFC54F" fill-rule="evenodd" d="m34.438 14.055-5.768 3.78 1.812-6.654-5.377-4.317 6.888-.333L34.438.083l2.444 6.448 6.888.333-5.377 4.317 1.812 6.653-5.767-3.779Z" clip-rule="evenodd"/></g><g clip-path="url(#c)"><path fill="#FFC54F" fill-rule="evenodd" d="m59.063 14.055-5.768 3.78 1.812-6.654-5.377-4.317 6.888-.333L59.062.083l2.445 6.448 6.888.333-5.377 4.317 1.812 6.653-5.767-3.779Z" clip-rule="evenodd"/></g><g clip-path="url(#d)"><path fill="#FFC54F" fill-rule="evenodd" d="m83.688 14.055-5.768 3.78 1.812-6.654-5.377-4.317 6.888-.333L83.688.083l2.444 6.448 6.888.333-5.377 4.317 1.812 6.653-5.767-3.779Z" clip-rule="evenodd"/></g><g clip-path="url(#e)"><path fill="#FFC54F" fill-rule="evenodd" d="m108.312 14.055-5.767 3.78 1.812-6.654-5.377-4.317 6.888-.333 2.444-6.448 2.445 6.448 6.888.333-5.377 4.317 1.812 6.653-5.768-3.779Z" clip-rule="evenodd"/></g><defs><clipPath id="a"><path fill="#fff" d="M0 .083h19.625v17.99H0z"/></clipPath><clipPath id="b"><path fill="#fff" d="M24.625.083H44.25v17.99H24.625z"/></clipPath><clipPath id="c"><path fill="#fff" d="M49.25.083h19.625v17.99H49.25z"/></clipPath><clipPath id="d"><path fill="#fff" d="M73.875.083H93.5v17.99H73.875z"/></clipPath><clipPath id="e"><path fill="#fff" d="M98.5.083h19.625v17.99H98.5z"/></clipPath></defs></svg>
